X:061 
T:Full Sails to Greenland* (reel) 
B:CRE4.101: gan ainm
F:file ID: cre.4/061full_s
S:J.Wade
L:1/8
Q:180
M:4/4
R:reel
K:G
Bd|gfgd BdGB|cBAG FADF|GB B2 defd|cAFA DFAd|
gfgd BdGB|cAFA DFAc|BGG2 Bdgd|cAFA G2:|
|:d|g2 fg Bdgb|afgc DFAc|BGFG Bdeg|afge defd|
g2bg dBGB|cBce FADF|BGG2 Bdgd|cAFA G2:|

%%%

